X: 1
T: ECCE TEMPUS
C: Thomas Tallis (ca 1505-1585)
S: http://javanese.imslp.info/files/imglnks/usimg/5/54/IMSLP131784-WIMA.3822-Tallis.100_Ecce_tempus.pdf
M: C
L: 1/8
K: Ephr
%%staves {(1 2) (3 4)}
% - - - - - - - - - - - - - - - - - - - - - - - - -
V: 1 nm=S
z8 | z8 | z8 | z2 B2 B2 A2 |
B2 d2 c2 BA | c2 B2- BA e2 | e2 d2 e2g2 | g2 ^f2 e2 d2- |
dcBA GA/B/ c2 | c2 B2- BA AB/c/ | d3 c B2 A2 | A2 G2 A2 c2- |
cA e2 e2d2 | e2f2 e2 G2 | A2 c2 c2 B2- | BA e2 e2 d2 | e2 g2 f2 e2 |
dcBA c2B2 | z8 | z2 A2 A2 G2 | A2 c3 B A2- | A2 ^G^F HG4 |]
% - - - - - - - - - - - - - - - - - - - - - - - - -
V: 2 nm=A
z8 | z2 E2 E2 D2 | E2 G2 ^F2 A2 | G2 ^F2 E4 |
z2 E2 E2 D2 | E2 G2 F2 E2 | G2 A2 E2 E2 | E2 D2 E"<(#)"F G2 |
FEDC B,2 E2 | A,2 D2 C2 A,2 | z2 D2 D2 C2 | D2 G2 F2 E2 |
z2 c2 c2 B2- | BA A2 A2 E2 | E2 D2 E2 G2 | F2 E2 z4 | z4 z2 E2 |
E2 D2 E2 G2 | F2 E2 E2 E2 | E2 D2 E2 G2 | F2 E3 D C2 | B,8 |]
% - - - - - - - - - - - - - - - - - - - - - - - - -
V: 3 nm=T clef=bass middle=D
z8 | G2 G2 A4 | z2 B2 B2 A2 | B2 d2 c4 |
B4 A2 A2 | A2 G2 AB c2 | B2 A2 A2 G2 | B4 G4 |
A4 E2 E2 | F2 G2 E4 | D4 G2 A2 | B4 A4 |
c4 c2 d2 | c2 d2 B4 | z2 A2A2 G2 | A2 c2 B2 A2 | A2 G2 A4 |
z2 A2 A2 G2 | A2 c2- cBAG | F4 E4 | E8- | E8 |]
% - - - - - - - - - - - - - - - - - - - - - - - - -
V: 4 nm=B clef=bass middle=D
E4 E2 D2 | E2 G2 F4 | E4 D2 C2 | B,4 z2 A2 |
A2 G2 A2 F2 | E4 D2 C2 | E2 F2 E4 | z8 |
z4 z2 A,2 | A,2 G,2 A,2 C2 | B,4 z4 | z8 |
z8 | z2 D2 E4 | F4 E4 | D2 C2 G2 F2 | E4 D2 C2 |
D2 F2 E4 | D2 C2 C4 | F,4 C3 B, | A,4 G,2 A,2 | HE,8 |]
